X: 9587
T: Davidson The Luthier
R: waltz
M: 3/4
K: Dmixolydian
|:FG|A3 A GF|GF D2 FG|A3 B cd|BA G2 FG|
A3 A GF|GF D2 F<A|E2 ED CE|GA D2:|
|:FA|d2 dc A/B/c|B2 BA GB|c2 cB AG|AF D2 FA|
d2 dc A/B/c|B2 BA GB|c2 cB AG|A3 D:|

